src/assets/images/twitter.svg

<?xml version="1.0" encoding="UTF-8"?>
<svg width="26px" height="27px" viewBox="0 0 26 27" version="1.1" xmlns="http://www.w3.org/2000/svg" xmlns:xlink="http://www.w3.org/1999/xlink">
    <!-- Generator: Sketch 41.2 (35397) - http://www.bohemiancoding.com/sketch -->
    <title>twitter square</title>
    <desc>Created with Sketch.</desc>
    <defs></defs>
    <g id="Page-1" stroke="none" stroke-width="1" fill="none" fill-rule="evenodd">
        <g id="About" transform="translate(-1031.000000, -733.000000)" fill="#E3E3E3">
            <g id="twitter-square" transform="translate(1031.000000, 733.000000)">
                <path d="M21.428597,8.783433 C20.959846,9.5033 20.357167,10.12272 19.670782,10.608212 C19.687523,10.758882 19.687523,10.909552 19.687523,11.060221 C19.687523,15.714245 16.138412,21.071394 9.676351,21.071394 C7.684161,21.071394 5.842641,20.485456 4.285719,19.497731 C4.553577,19.531214 4.838175,19.547955 5.122774,19.547955 C6.780142,19.547955 8.28684,18.978758 9.492199,18.041257 C7.952018,18.007774 6.662954,16.986568 6.210945,15.597057 C6.428579,15.630539 6.646213,15.664022 6.863847,15.664022 C7.181928,15.664022 7.416303,15.613798 7.717643,15.530093 C6.110498,15.212012 4.821434,13.789019 4.821434,12.081428 L4.821434,12.047946 C5.357149,12.299062 5.909605,12.466473 6.495543,12.483214 C5.541301,11.847053 4.972104,10.775623 4.972104,9.553523 C4.972104,8.917362 5.156256,8.297941 5.457596,7.778968 C7.198669,9.921827 9.793538,11.311338 12.723229,11.462008 C12.656265,11.210891 12.639524,10.926293 12.639524,10.658435 C12.639524,8.716469 14.213187,7.142806 16.155153,7.142806 C17.159619,7.142806 18.080379,7.561333 18.71654,8.247718 C19.520113,8.097048 20.273462,7.795709 20.959846,7.393922 C20.691989,8.214236 20.139533,8.917362 19.402925,9.35263 C20.122792,9.252184 20.792436,9.068032 21.428597,8.783433 Z M25.714316,5.535661 C25.714316,2.873828 23.554716,0.714227 20.892882,0.714227 L4.821434,0.714227 C2.159601,0.714227 0,2.873828 0,5.535661 L0,21.607109 C0,24.268943 2.159601,26.428543 4.821434,26.428543 L20.892882,26.428543 C23.554716,26.428543 25.714316,24.268943 25.714316,21.607109 L25.714316,5.535661 Z" id="Shape"></path>
            </g>
        </g>
    </g>
</svg>

<svg width="26" height="27" viewBox="0 0 26 27" xmlns="http://www.w3.org/2000/svg"><title>twitter square</title><path d="M21.43 8.783c-.47.72-1.073 1.34-1.76 1.825.018.15.018.302.018.452 0 4.654-3.55 10.01-10.012 10.01-1.992 0-3.833-.585-5.39-1.572.268.033.552.05.837.05 1.657 0 3.164-.57 4.37-1.507-1.54-.032-2.83-1.053-3.282-2.443.22.034.436.067.654.067.318 0 .552-.05.854-.134-1.608-.318-2.897-1.74-2.897-3.45v-.032c.537.25 1.09.418 1.676.435-.955-.636-1.524-1.707-1.524-2.93 0-.636.184-1.255.486-1.774 1.74 2.142 4.336 3.53 7.265 3.682-.067-.25-.083-.536-.083-.804 0-1.942 1.573-3.515 3.515-3.515 1.005 0 1.925.418 2.562 1.105.803-.15 1.556-.452 2.243-.854-.268.82-.82 1.523-1.557 1.96.72-.102 1.39-.286 2.026-.57zm4.284-3.247c0-2.662-2.16-4.822-4.82-4.822H4.82C2.16.714 0 2.874 0 5.536v16.07c0 2.663 2.16 4.823 4.82 4.823h16.073c2.662 0 4.82-2.16 4.82-4.823V5.537z" fill="#E3E3E3" fill-rule="evenodd"/></svg>
